docs/.gitbook/assets/icon-contrast-16@dark.svg

<svg width="32" height="32" viewBox="0 0 16 16" fill="none" xmlns="http://www.w3.org/2000/svg">
<rect x="0" y="0" width="16" height="16" fill="#181c1f"/>
<path fill-rule="evenodd" clip-rule="evenodd" d="M3.75 1C2.23122 1 1 2.23122 1 3.75V12.25C1 13.7688 2.23122 15 3.75 15H12.25C13.7688 15 15 13.7688 15 12.25V3.75C15 2.23122 13.7688 1 12.25 1H3.75ZM2.5 3.75C2.5 3.05964 3.05964 2.5 3.75 2.5H12.25C12.9404 2.5 13.5 3.05964 13.5 3.75V12.25C13.5 12.9404 12.9404 13.5 12.25 13.5H3.75C3.05964 13.5 2.5 12.9404 2.5 12.25V3.75ZM5.20711 4L11.5 4C11.7761 4 12 4.22386 12 4.5V10.7929C12 11.2383 11.4614 11.4614 11.1464 11.1464L4.85355 4.85356C4.53857 4.53857 4.76165 4 5.20711 4Z" fill="#fff"/>
</svg>

<svg xmlns="http://www.w3.org/2000/svg" width="32" height="32" fill="none" viewBox="0 0 16 16"><path fill="#181c1f" d="M0 0h16v16H0z"/><path fill="#fff" fill-rule="evenodd" d="M3.75 1A2.75 2.75 0 0 0 1 3.75v8.5A2.75 2.75 0 0 0 3.75 15h8.5A2.75 2.75 0 0 0 15 12.25v-8.5A2.75 2.75 0 0 0 12.25 1zM2.5 3.75c0-.69.56-1.25 1.25-1.25h8.5c.69 0 1.25.56 1.25 1.25v8.5c0 .69-.56 1.25-1.25 1.25h-8.5c-.69 0-1.25-.56-1.25-1.25zM5.207 4H11.5a.5.5 0 0 1 .5.5v6.293a.5.5 0 0 1-.854.353L4.854 4.854A.5.5 0 0 1 5.207 4" clip-rule="evenodd"/></svg>
